!!!id: BC071
!!!page: 90
!!!COM: Beaudry, Roméo
!!!LYR: Beaudry, Roméo
!!!PTL@@FR: Les 100 plus belles chansons
!!!OTL@@FR: Ne fais jamais pleurer ta mère
!!!PUB: La Bonne Chanson, inc.
!!!YEM: On ne peut reproduire, enregistrer ou diffuser en tout ou en partie le présent ouvrage, sous quelque procédé que ce soit, électronique, mécanique, photographique, sonore, magnétique ou autre, sans avoir obtenu au préalable l'autorisation écrite de l'éditrice.
!!!PDT: 2011
!!!SMA:2012 Bibliothèque nationale du Québec; Biblothèque nationale du Canada
!!!AGN-Laforte: Chanson strophique (avec refrain), 2:4(7/4+4), R:8(8/7)
!!!AGN-type: Chanson populaire
!!!AGN-rime: Rubaiyat (aaba), Refrain: croisées (abababab)
**kern	**text	**text
*clefG2	*	*
*k[f#]	*	*
*G:	*	*
!!LO:TX:a:B:t=Tempo di Valse
*M3/4	*	*
*	*v:1	*v:2
*	*pline:1	*pline:5
{{4dd	Je	S'il
=1	=1	=1
4dd	m'en	t'ar-
4b	sou-	-ri-
4a	-vien-	-ve
=2	=2	=2
2g#	-drai	de
4e	tou-	souf-
=3	=3	=3
[2.cc	-jours,	-frir
*	*rp:u	*rp:i
*	*rf:ʒuʁ	*rf:ʁiʁ
*	*rs:a1-1	*rs:c1-1
=4	=4	=4
4cc]	.	.
4r}	.	.
*	*pline:2	*pline:6
{4cc	Mon	D'un
=5	=5	=5
4cc	pè-	mal
4a	-re	qui
4g	me	te
!!LO:PB:g=original
=6	=6	=6
2f#	dit	fait
4d	un	mou-
=7	=7	=7
[2.b	jour:	-rir,
*	*rp:u	*rp:i
*	*rf:ʒuʁ	*rf:ʁiʁ
*	*rs:a1-1	*rs:c1-1
=8	=8	=8
2b]}	.	.
*	*pline:3Ha	*pline:7Ha
{4b	"Pour	Cher-
=9	=9	=9
2b	ta	-che
4b	ma-	tou-
=10	=10	=10
2cc#	-man	-jours
*	*rp:ɑ̃	*rp:u
*	*rf:mɑ̃	*rf:ʒuʁ
*	*rs:b1-	*rs:a1-1
*	*pline:3Hb	*pline:7Hb
4cc#	Qui	Dans
=11	=11	=11
2dd	t'ai-	son
4dd	-me	a-
=12	=12	=12
2b-	tant,	-mour
*	*rp:ɑ̃	*rp:u
*	*rf:tɑ̃	*rf:muʁ
*	*rs:b2-	*rs:a2-1
*	*pline:4	*pline:8
4b-	Oui,	Le
=13	=13	=13
2a	gar-	bau-
4a	-de	-me
!!LO:PB:g=original
=14	=14	=14
4a	bien	qui
4d#	ton	sait
4e	a-	gué-
=15	=15	=15
[2.a	-mour.	-rir.
*	*rp:u	*rp:iʁ
*	*rf:muʁ	*rf:ʁiʁ
*	*rs:a2-1	*rs:c1-1
=16	=16	=16
2a]}}	.	.
*>Refrain	*>Refrain	*>Refrain
*	*pline:R1	*
{{4d	Ne	.
=17||	=17||	=17||
4b	fais	.
4a#	ja-	.
4b	-mais	.
=18	=18	=18
4cc	pleu-	.
4b	-rer	.
4cc	ta	.
=19	=19	=19
2.dd	mè-	.
=20	=20	=20
2b	-re,	.
*	*rp:ɛː	*
*	*rf:ɛːʁ,ə	*
*	*rs:Rd1	*
*	*pline:R2	*
4dd	Res-	.
!!LO:PB:g=original
=21	=21	=21
4dd	-pec-	.
4cc	-te-	.
4b	-la	.
=22	=22	=22
2cc	bien	.
4g	tou-	.
=23	=23	=23
[2.b	-jours;	.
*	*rp:u	*
*	*rf:ʒuʁ	*
*	*rs:Ra1-1	*
=24	=24	=24
2b]}	.	.
*	*pline:R3	*
{4d	Car	.
=25	=25	=25
4b	c'est	.
4a#	l'ê-	.
4b	-tre	.
=26	=26	=26
4cc	qui	.
4b	sur	.
4cc	la	.
=27	=27	=27
2.dd	ter-	.
!!LO:PB:g=original
=28	=28	=28
2b	-re	.
*	*rp:ɛː	*
*	*rf:ɛːʁ,ə	*
*	*rs:Rd1	*
*	*pline:R4	*
4dd	A	.
=29	=29	=29
4dd	pour	.
4cc#	toi	.
4a#	le	.
=30	=30	=30
2g	plus	.
4f#	d'a-	.
=31	=31	=31
[2.b	-mour;	.
*	*rp:u	*
*	*rf:muʁ	*
*	*rs:Ra2-1	*
=32	=32	=32
2b]}}	.	.
*	*pline:R5	*
{{4b	Et	.
=33	=33	=33
4dd	si	.
4cc	par-	.
4b	-fois	.
=34	=34	=34
4dd	ell[e]	.
4cc	est	.
4b	sé-	.
!!LO:PB:g=original
=35	=35	=35
2.dd	-vè-	.
=36	=36	=36
2cc	-re,	.
*	*rp:ɛː	*
*	*rf:ɛːʁ,ə	*
*	*rs:Rd1	*
*	*pline:R6	*
4cc	Ell[e]	.
=37	=37	=37
2b	est	.
4a	si	.
=38	=38	=38
4g	bonn[e]	.
4d#	en	.
4e	re-	.
=39	=39	=39
[2.a	-tour;	.
*	*rp:u	*
*	*rf:tuʁ	*
*	*rs:Ra3-1	*
=40	=40	=40
2a]}}	.	.
*	*pline:R7	*
{{4d	Ne	.
=41	=41	=41
4b	fais	.
4a#	ja-	.
4b	-mais	.
!!LO:PB:g=original
=42	=42	=42
4cc	pleu-	.
4b	-rer	.
4cc	ta	.
=43	=43	=43
2.dd	mè-	.
=44	=44	=44
2dd#;	-re,	.
*	*rp:ɛː	*
*	*rf:ɛːʁ,ə	*
*	*rs:Rd1	*
*	*pline:R8	*
4dd#	Car	.
=45	=45	=45
4ff#	tu	.
4ee	ne	.
4cc	l'au-	.
=46	=46	=46
4e	-ras	.
4f#	pas	.
4b	tou-	.
=47	=47	=47
[2.g	-jours!"	.
*	*rp:u	*
*	*rf:ʒuʁ	*
*	*rs:Ra1-1	*
=48	=48	=48
2g]}}	.	.
==	==	==
*-	*-	*-
!!!EED: Isaac Howie
!!!EEV: 2025/07/22
!!!EED: Ève Poudrier
!!!EEV: 2025/08/12
